X:1
T:Keep a Light in the Window
T:Keep a Light in the Window
T:William B. Evans, 1894
T:M. A. Maitland, 1875
T:Public Domain Courtesy of the Cyber Hymnal™
T:Public Domain Courtesy of the Cyber Hymnal™
C:William B. Evans, 1894
Z:Public Domain
Z:Courtesy of the Cyber Hymnal™
%%score 1 ( 2 3 )
L:1/8
Q:1/4=83
M:6/8
K:G
V:1 treble 
V:2 bass 
V:3 bass 
V:1
 D/D/ | B>^AB (=AG)E | E D3- D2 | GGG GAB | A3- A2 D/D/ | B>AB (AG)E | E D4 z | FFF !fermata!c2 F | %8
w: 1.~Keep a|light in the win- * dow|burn- ing, *|Faint tho’ its glim- mer- ing|be; * It may|light- en some home- * less|wan- derer,|Toss- ing on life’s dark|
w: 2.~Keep a|light in the win- * dow|burn- ing, *|Brill- iant- ly fo- r a|sign; * That up-|on you the Lord * of|glo- ry|Mak- eth His face to|
w: 3.~Keep a|light in the win- * dow|burn- ing, *|Ye who in Chri- st re-|joice; * And with|ho- pe- ful souls * are|wait- ing,|For~the sound~of the Bride- groom’s|
 G3- G2 G/G/ | (FG)A (AB)c | c B4 B | eBB (BE)G | F3- F2 F/F/ | G>FG (AG)E | E D4 G/G/ | %15
w: sea. * It may|whis- * per words * of|com- fort, And|hope to the sink- * ing|heart; * Of the|bea- con that fade- * less|gleam- eth, When the|
w: shine. * Hop- ing|that * some long * lost|bro- ther, Way-|laid in the path * of|sin; * Ma- y|se- e its wel- * come|glim- mer, An- d|
w: voice. * Till the|light~of * His glori- * ous|pre- sence, Ex-|ting- uish the fee- * ble|ray; * Like the|morn- ing star it * shall|van- ish, In the|
 A^GA !fermata!c2 F | G3- !fermata!G2 |] %17
w: sun- beams of earth de-|part. *|
w: joy- ful- ly en- ter|in. *|
w: light of the per- fect|day. *|
V:2
 z | (z [G,B,D])[G,B,D] (z [G,CE])[G,CE] | z ([G,CE][G,CE] z [G,CE][G,CE]) | %3
 z [G,CE][G,CE] z [G,A,^C][G,A,C] | (z [F,A,D][F,A,D] z [F,A,C])[F,A,C] | %5
 z [G,B,D][G,B,D] (z [G,CE])[G,CE] | z ([G,B,D][G,B,D] z [G,B,D][G,B,D]) | %7
 z [F,A,D][F,A,D] (z [F,A,C])[F,A,C] | G,,[D,G,B,D][B,,G,B,D] [G,,G,B,D]2 z | %9
 z [F,A,D][F,A,D] (z [A,CD])[A,CD] | z ([G,B,D][G,B,D] z [G,B,D])[G,B,D] | %11
 z ([G,B,E][G,B,E]) (z [G,B,E])[G,B,E] | (z [A,B,^D][A,B,D] z [A,B,D])[A,B,D] | %13
 (z [G,B,E])[G,CE] (z [G,CE])[G,CE] | z ([G,B,D][G,B,D] z [G,B,D])[G,B,D] | %15
 z [F,A,D][F,A,D] z [F,A,C][F,A,C] | (G,,[D,G,B,D][B,,G,B,D] !fermata![G,,G,B,D]2) |] %17
V:3
 x | G,,2 G,,2 x2 | G,,2 G,,2 x2 | G,,2 G,,2 x2 | D,2 D,2 x2 | G,,2 G,,2 x2 | G,,2 G,,2 x2 | %7
 D,2 D,2 x2 | x6 | D,2 F,,2 x2 | G,,2 G,,2 x2 | [E,,E,]2 [E,,E,]2 x2 | ([B,,,B,,]2 [B,,,B,,]2) x2 | %13
 [E,,E,]2 [C,,C,]2 x2 | G,,2 G,,2 x2 | D,2 D,2 x2 | x5 |] %17

